material/.icons/material/arrow-bottom-left-bold-outline.svg

<svg xmlns="http://www.w3.org/2000/svg" viewBox="0 0 24 24"><path d="M18.36 19.78H4.22V5.64l4.25 4.24 5.65-5.66 5.66 5.66-5.66 5.66 4.24 4.24M6.34 17.66h7.07l-2.12-2.12 5.66-5.66-2.83-2.83-5.66 5.66-2.12-2.12v7.07z"/></svg>

<?xml version="1.0" encoding="UTF-8"?><!DOCTYPE svg PUBLIC "-//W3C//DTD SVG 1.1//EN" "http://www.w3.org/Graphics/SVG/1.1/DTD/svg11.dtd"><svg xmlns="http://www.w3.org/2000/svg" xmlns:xlink="http://www.w3.org/1999/xlink" version="1.1" id="mdi-arrow-bottom-left-bold-outline" width="24" height="24" viewBox="0 0 24 24"><path d="M18.36,19.78H4.22V5.64L8.47,9.88L14.12,4.22L19.78,9.88L14.12,15.54L18.36,19.78M6.34,17.66H13.41L11.29,15.54L16.95,9.88L14.12,7.05L8.46,12.71L6.34,10.59V17.66Z" /></svg>
